X:1
T:In the Sweet Sometime of Heaven
T:In the Sweet Sometime of Heaven
T:Henry G. Sherbert
T:May Justus, 1919
T:Public Domain Courtesy of the Cyber Hymnal™
T:Public Domain Courtesy of the Cyber Hymnal™
C:Henry G. Sherbert
Z:Public Domain
Z:Courtesy of the Cyber Hymnal™
%%score ( 1 2 ) ( 3 4 )
L:1/8
Q:1/4=97
M:4/4
K:Ab
V:1 treble 
V:2 treble 
V:3 bass 
V:4 bass 
V:1
 EF | A4- [EA][EB][EA][EA] | [DF][CE-] E4 AB | c4- [Ac][Ac][EB][FA] | B6 EF | %5
w: 1.~Of this|earth- land I am wea-|* ry * (I am|ry), One of God’s great|* pil- grim|
w: 2.~In my|wak- ing or my sleep-|* ing * (or my|ing), I am dream- ing|* o’er and|
w: 3.~Tho’ my|dear- est hopes may per-|* ish * (hopes may|ish), Tho’ my eyes are|* dim with|
w: 4.~Home- sick|heart, be not re- pin-|* ing * (not re-|ing), Be thou pa- tient|* here a|
 A4- [EA][EB][EA][EA] | [DF][CE-] E4 Ac | e4- [Ae]A[Ac][GB] | A6 ||"^Refrain" AA | %10
w: band (great pil- grim band);|* Oft * in path-|worn and wea- ry (worn|and|wea- ry),|
w: o’er (yes, o’er and o’er)|* Of * the joys|God’s own keep- ing (God’s|own|keep- ing),|
w: tears (are dim with tears),|* This * by faith|heart will cher- ish (heart|will|cher- ish)|
w: while (yes, here a while);|* Thou * shalt see|wel- come shin- ing (wel-|come|shin- ing)|
 B4- [EB][Fd][EA][EB] | [Ec] ([Ec-] c4) AB | c4- [Ac][Ac][EB][FA] | B6 Ac | e4- [Ae][Ac][EB][EA] | %15
w: Seek- ing for my dear|* home * land (my|dear home land). * *|||
w: Of the hap- pi- ness|* in * store (for-|e’er in store). Yet by|* one glad|prom- ise giv- en, I|
w: Thro’ the pass- ing of|* the * years (yes,|of the years). * *|||
w: Just be- yond the last|* long * mile (the|last long mile). * *|||
 [DF] ([CE-] E4) AB | c4- [Ac]A[Ac][GB] | A6 |] %18
w: |||
w: * am * wait- ing|day by day For that|sweet|
w: |||
w: |||
V:2
 x2 | E2 E2 x4 | x2 CC CC x2 | A2 A2 x4 | GGGG G2 x2 | E2 E2 x4 | x2 CC CC x2 | (A2 A2 A) x3 | %8
w: ||wea- * * *||||ways * * *||
w: ||sleep- * * *||||in * * *||
w: ||per- * * *||||my * * *||
w: ||pin- * * *||||God’s * * *||
 AEFF E2 || x2 | E2 E2 x4 | x2 (EE EE) x2 | A2 A2 x4 | (GGGG G2) x2 | A2 A2 x4 | x2 (CC CC) x2 | %16
w: ||||||||
w: ||||||||
w: ||||||||
w: ||||||||
 (A2 A2 A) x3 | (AEFF E2) |] %18
w: ||
w: ||
w: ||
w: ||
V:3
 z2 | ([A,,C]2 [A,,C]2 [A,,C])[A,,C][A,,C][A,,C] | [A,,A,][A,,A,][C,A,][E,A,] [A,,A,][A,,A,] z2 | %3
w: |~ * * ~ ~ ~|~ ~ ~ ~ ~ ~|
 ([A,E]2 [A,E]2 [A,E])[A,E][G,E][F,=D] | [E,E][E,E][E,E][E,E] [E,E]2 z2 | %5
w: ~ * * ~ ~ ~|~ ~ ~ ~ ~|
 ([A,,C]2 [A,,C]2 [A,,C])[A,,C][A,,C][A,,C] | [A,,A,][A,,A,][C,A,][E,A,] [A,,A,][A,,A,] z2 | %7
w: ~ * * ~ ~ ~|~ ~ ~ ~ ~ ~|
 ([A,C]2 [A,C]2 [A,C])[C,E][E,E][E,D] | CCDD C2 || z2 | [E,G,]2 [E,G,]2 [E,G,][D,A,][C,A,][B,,G,] | %11
w: ~ * * ~ ~ ~|~ ~ ~ ~ ~||Yet by one ~ ~ ~|
 [A,,A,][A,,A,][C,A,][E,A,] [A,,A,][A,,A,] z2 | [A,E]2 [A,E]2 [A,E][A,E][G,E][F,=D] | %13
w: ~ ~ prom- ise giv- en|I am wait- ing ~ ~|
 [E,E][E,E][E,E][E,E] [E,E]2 z2 | [A,C]2 [A,C]2 [A,C][A,E][A,D][A,C] | %15
w: ~ yes, day by day|For the sweet ~ ~ ~|
 [A,,A,][A,,A,][C,A,][E,A,] [A,,A,][A,,A,] z2 | [A,E]2 [F,F]2 [C,E][C,E][E,E][E,D] | CCDD C2 |] %18
w: ~ ~ bless- ed Hea- ven,|When the years ~ ~ ~|~ have rolled a- way!|
V:4
 x2 | x8 | x8 | x8 | x8 | x8 | x8 | x8 | A,,6 || x2 | x8 | x8 | x8 | x8 | x8 | x8 | x8 | A,,6 |] %18

